brandFactory_export/1.Light/Supermercado _1Light.svg

<?xml version="1.0" encoding="UTF-8"?>
<svg width="24px" height="24px" viewBox="0 0 24 24" version="1.1" xmlns="http://www.w3.org/2000/svg" xmlns:xlink="http://www.w3.org/1999/xlink">
    <title>1.Light/Supermercado _1Light</title>
    <g id="Symbols" stroke="none" stroke-width="1" fill="none" fill-rule="evenodd">
        <g id="1.Light/Supermercado-_1Light" fill="#5CB615" fill-rule="nonzero">
            <path d="M12.994958,13.2033613 C13.2067227,12.994958 13.3109244,12.6319328 13.3109244,12.1310924 C13.3109244,11.6302521 13.2033613,11.2672269 12.9915966,11.0554622 C12.7865546,10.8504202 12.4470588,10.7462185 11.9798319,10.7462185 C11.5159664,10.7462185 11.1731092,10.8470588 10.9714286,11.0554622 C10.7630252,11.2672269 10.6554622,11.6302521 10.6554622,12.1310924 C10.6554622,12.6319328 10.7630252,12.9915966 10.9680672,13.2033613 C11.1697479,13.4084034 11.512605,13.512605 11.9798319,13.512605 C12.4470588,13.512605 12.789916,13.4084034 12.994958,13.2033613 Z M11.9798319,9.72436975 C12.7092437,9.72436975 13.2773109,9.92605042 13.6705882,10.3226891 C14.0806723,10.7327731 14.2890756,11.3445378 14.2890756,12.1310924 C14.2890756,12.9210084 14.0806723,13.5294118 13.6672269,13.9394958 C13.2739496,14.3327731 12.7058824,14.5310924 11.9764706,14.5310924 C11.2470588,14.5310924 10.6789916,14.3294118 10.2857143,13.9394958 C9.8789916,13.5260504 9.67058824,12.9210084 9.67058824,12.1310924 C9.67058824,11.3445378 9.87563025,10.7327731 10.2857143,10.3226891 C10.6823529,9.92605042 11.2537815,9.72436975 11.9798319,9.72436975 L11.9798319,9.72436975 Z M13.3445378,2.74285714 L10.6655462,2.74285714 C10.7663866,3.32436975 10.8436975,3.82184874 10.8537815,3.86554622 C10.8672269,3.9394958 10.9512605,4.28571429 11.0991597,4.28571429 L12.7798319,4.28571429 C12.887395,4.28571429 12.9579832,4.12773109 12.994958,3.99327731 C13.092437,3.65042017 13.2336134,3.14621849 13.3445378,2.74285714 Z M8.78655462,1.02184874 C8.51428571,1.01848739 8.29915966,0.786554622 8.30248215,0.504201681 C8.30588235,0.221848739 8.48403361,0.0100840336 8.8,0 L9.24369748,0 C9.74453782,0 10.1714286,0.349579832 10.3092437,0.87394958 C10.3529412,1.04537815 10.4168067,1.35798319 10.4840336,1.71764706 L13.9932773,1.71764706 C14.1478992,1.71764706 14.292437,1.79159664 14.3865546,1.91932773 C14.4806723,2.04705882 14.5109244,2.21176471 14.4672269,2.3697479 C14.4672269,2.3697479 14.1243697,3.62352941 13.9394958,4.27563025 C13.7613445,4.91764706 13.3243697,5.30420168 12.7831933,5.30420168 L11.102521,5.30420168 C10.389916,5.30420168 9.97310924,4.63865546 9.88571429,4.02016807 C9.82857143,3.66722689 9.71428571,2.97142857 9.6,2.33613445 C9.59663866,2.32605042 9.59663866,2.31596639 9.59327731,2.30252101 C9.50252101,1.79831933 9.41512605,1.34117647 9.36134454,1.1394958 C9.33109244,1.01848739 9.23361345,1.01848739 9.24033613,1.01848739 C9.00168067,1.02521008 8.78655462,1.02184874 8.78655462,1.02184874 Z M11.1663866,5.75798319 C11.1798319,5.75798319 11.189916,5.76134454 11.2033613,5.76134454 C11.2941176,5.76470588 11.6571429,5.80168067 11.6571429,6.25210084 C11.6571429,6.70588235 11.297479,6.74285714 11.2067227,6.74285714 L11.1596639,6.74285714 C11.0655462,6.7394958 10.7092437,6.70588235 10.7092437,6.2487395 C10.7092437,5.79495798 11.0621849,5.76134454 11.1563025,5.75798319 L11.1663866,5.75798319 L11.1663866,5.75798319 Z M12.6756303,5.75798319 C12.6890756,5.75798319 12.6991597,5.76134454 12.712605,5.76134454 C12.8033613,5.76470588 13.1663866,5.80168067 13.1663866,6.25210084 C13.1663866,6.70588235 12.8067227,6.74285714 12.7159664,6.74285714 L12.6756303,6.74285714 C12.5781513,6.7394958 12.2252101,6.70588235 12.2252101,6.2487395 C12.2252101,5.79495798 12.5781513,5.76134454 12.6722689,5.75798319 L12.6756303,5.75798319 L12.6756303,5.75798319 Z M19.7142857,22.5411765 L22.6386555,22.5411765 L22.6386555,12.6420168 L19.7142857,12.6420168 L19.7142857,22.5411765 Z M18.7361345,22.5411765 L18.7361345,21.4386555 L18.7361345,8.48403361 C18.7193277,8.47731092 18.5647059,8.35294118 18.3831933,8.35294118 L5.5092437,8.35294118 C5.32773109,8.35294118 5.1697479,8.47394958 5.14621849,8.52436975 L5.15294118,22.5915966 L7.83193277,22.5815126 L7.83193277,16.4638655 C7.83193277,16.1815126 8.05042017,15.9529412 8.32268908,15.9529412 L15.5966387,15.9529412 C15.8689076,15.9529412 16.087395,16.1815126 16.087395,16.4638655 L16.087395,22.5546218 L18.7361345,22.5411765 Z M15.102521,22.5579832 L15.102521,16.9781513 L8.81680672,16.9781513 L8.81680672,22.5781513 L15.102521,22.5579832 Z M0.981512605,22.5411765 L3.90588235,22.5411765 L3.90588235,12.6420168 L0.981512605,12.6420168 L0.981512605,22.5411765 Z M23.1327731,11.6201681 C23.405042,11.6201681 23.6235294,11.8487395 23.6235294,12.1310924 L23.6235294,23.0521008 C23.6235294,23.3344538 23.4016807,23.6235294 23.1294118,23.6235294 L0.490756303,23.6235294 C0.218487395,23.6235294 0,23.3344538 0,23.0521008 L0,12.1310924 C0,11.8453782 0.218487395,11.6201681 0.490756303,11.6201681 L4.17478992,11.6201681 L4.17478992,8.48403361 C4.17478992,7.86890756 4.8,7.33109244 5.51260504,7.33109244 L18.3831933,7.33109244 C19.0957983,7.33109244 19.7210084,7.86890756 19.7210084,8.48403361 L19.7210084,11.6168067 L23.1327731,11.6168067 L23.1327731,11.6201681 Z" id="Supermercado-_1Light"></path>
        </g>
    </g>
</svg>

<svg width="24" height="24" viewBox="0 0 24 24" xmlns="http://www.w3.org/2000/svg"><path d="M12.995 13.203c.212-.208.316-.571.316-1.072 0-.5-.108-.864-.32-1.076-.204-.205-.544-.309-1.011-.309-.464 0-.807.101-1.009.31-.208.211-.316.574-.316 1.075 0 .5.108.86.313 1.072.202.205.545.31 1.012.31.467 0 .81-.105 1.015-.31zM11.98 9.724c.73 0 1.297.202 1.69.599.41.41.62 1.022.62 1.808 0 .79-.21 1.398-.623 1.808-.393.394-.961.592-1.69.592-.73 0-1.298-.202-1.691-.592-.407-.413-.615-1.018-.615-1.808 0-.786.205-1.398.615-1.808.396-.397.968-.599 1.694-.599zm1.365-6.981h-2.68c.101.581.179 1.079.189 1.123.013.073.097.42.245.42h1.68c.108 0 .179-.158.216-.293.097-.343.239-.847.35-1.25zM8.787 1.022a.5.5 0 01-.485-.518C8.306.222 8.484.01 8.8 0h.444c.5 0 .927.35 1.065.874.044.171.108.484.175.844h3.51c.154 0 .298.074.393.201a.521.521 0 01.08.45s-.343 1.255-.528 1.907c-.178.642-.615 1.028-1.156 1.028h-1.68c-.713 0-1.13-.665-1.217-1.284-.057-.353-.172-1.049-.286-1.684-.003-.01-.003-.02-.007-.033-.09-.505-.178-.962-.232-1.164-.03-.12-.127-.12-.12-.12-.24.006-.454.003-.454.003zm2.38 4.736c.013 0 .023.003.036.003.091.004.454.04.454.491 0 .454-.36.49-.45.49h-.047c-.094-.003-.45-.036-.45-.493 0-.454.352-.488.446-.491h.01zm1.509 0c.013 0 .023.003.037.003.09.004.453.04.453.491 0 .454-.36.49-.45.49h-.04c-.098-.003-.45-.036-.45-.493 0-.454.352-.488.446-.491h.004zm7.038 16.783h2.925v-9.899h-2.925v9.9zm-.978 0V8.484c-.017-.007-.171-.131-.353-.131H5.51c-.181 0-.34.12-.363.171l.007 14.068 2.679-.01v-6.118a.5.5 0 01.49-.511h7.275a.5.5 0 01.49.51v6.092l2.65-.014zm-3.633.017v-5.58H8.817v5.6l6.286-.02zM.982 22.541h2.924v-9.899H.982v9.9zm22.15-10.92a.5.5 0 01.492.51v10.921c0 .282-.222.572-.495.572H.491c-.273 0-.491-.29-.491-.572v-10.92c0-.287.218-.512.49-.512h3.685V8.484c0-.615.625-1.153 1.338-1.153h12.87c.713 0 1.338.538 1.338 1.153v3.133h3.412v.003z" fill="#5CB615" fill-rule="nonzero"/></svg>
